X:1
T:All Hail the Power of Jesus' Name!
T:All Hail the Power of Jesus' Name!
%%score ( 1 2 ) ( 3 4 )
L:1/8
M:3/4
K:Ab
V:1 treble nm="Piano" snm="Pno."
V:2 treble 
V:3 bass nm="Piano" snm="Pno."
V:4 bass 
V:1
 [CE]2 | [EA]4 [EB]2 | (c>d e2) [FA]2 | (([FB]2 [EA]2)) [DG]2 | [CA]4 (([EG][DF])) | %5
w: 1~All|hail the|power _ _ of|Je- * sus'|name! Let _|
w: 2~Ye|cho- sen|seed _ _ of|Is- * rael's|race, ye _|
w: 3~Let|ev- ery|kin- * * dred,|ev- * ery|tribe on _|
w: 4~O|that with|yon- * * der|sa- * cred|throng we _|
 [CE]3 [CE] [DF][DF] | (E2 A2) [EA]2 | (([DF]2 [Fd]2)) [Fd]2 | [Ec]4 [DB]2 | [CA]4 (([CA][DB])) | %10
w: an- gels pros- trate|fall _ let|an- * gels|pros- trate|fall; bring _|
w: ran- somed from the|fall, _ ye|ran- * somed|from the|fall, hail _|
w: this ter- res- trial|ball, _ on|this _ ter-|res- trial|ball, to _|
w: at his feet may|fall _ we|at _ his|feet may|fall! We'll _|
 [Ec]4 [Ec]2 | (c2 B2) [FA]2 | (([FB]2 [_EA]2)) [DG]2 | (([CA]>[DB] [Ec]2)) [_Ge]2 | %14
w: forth the|ro- * al|di- * a-|dem, scribe, * and|
w: him who|saves _ you|by _ his|grace, * * *|
w: him all|ma- * je-|sty _ a-|song, * * *|
w: join the|e- * ver-|las- * ting||
 (([Fd]3 [Ec][DB][Fd] | [Ec]3 [DB][CA][Ec] | [DB]3 [CA][B,G][DB] | [CA]2 [CA]2)) z2 | %18
w: crown _ _ _|_ _ _ _||* him,|
w: ||||
w: ||||
w: ||||
 [Fd]2 [Fd]2 z2 | [EB]2 [EB]2 z2 | [Ec]2 [Ec]2 [Ee]2 | (A>B c2) [Fd]2 | [Ac]4 B2 | [EA]4 |] %24
w: crown him,|crown him,|crown him, and|crown _ _ him|Lord of|all.|
w: ||||||
w: ||||||
w: ||||||
V:2
 x2 | x6 | E4 x2 | x6 | x6 | x6 | C4 x2 | x6 | x6 | x6 | x6 | =E4 x2 | x6 | x6 | x6 | x6 | x6 | %17
 x6 | x6 | x6 | x6 | E4 x2 | x4 (GE) | x4 |] %24
V:3
 [A,,A,]2 | (([A,,C]2 [C,A,]2)) [E,G,]2 | (A,>B, C2) [F,C]2 | (([D,D]2 [E,C]2)) [E,B,]2 | %4
w: ||||
 [A,,A,]4 (B,G,) | A,3 A, A,A, | A,4 [A,,C]2 | (D2 A,2) [B,,A,]2 | [E,A,]4 [E,G,]2 | %9
w: |||||
 [A,,A,]4 [A,,A,]2 | A,4 A,2 | [G,C]4 [F,C]2 | (([D,D]2 [E,C]2)) [E,B,]2 | [A,,A,]4 [A,C]2 | %14
w: ||||* and|
 [D,D]2 [D,A,]2 z2 | [A,,A,]2 [A,,A,]2 z2 | [E,G,]2 [E,G,]2 z2 | A,2 A,2 z2 | A,2 A,2 z2 | %19
w: crown him,|crown him,|crown him,|crown him,|crown him,|
 G,2 G,2 z2 | A,2 A,2 C2 | (C>B,) A,2 A,2 | (A,C E2) [E,D]2 | [A,,C]4 |] %24
w: |||||
V:4
 x2 | x6 | A,4 x2 | x6 | x4 z2 | x6 | z2 z2 x2 | D,4 x2 | x6 | x6 | A,4 A,2 | x6 | x6 | x6 | x6 | %15
 x6 | x6 | (A,3 G,F,E, | D,3 C,B,,A,, | E,3 F,G,E, | A,2) A,2 z2 | z2 z A, D,D, | E,4 x2 | x4 |] %24

